src/pos-icons/language-ruby.svg

<svg height="24" viewBox="0 0 24 24" width="24" xmlns="http://www.w3.org/2000/svg"><path d="m18.8 2.07c2.52.43 3.24 2.16 3.2 3.97v-.04l-1.14 14.93-14.78 1.01h.01c-1.23-.05-3.96-.17-4.09-3.99l1.37-2.5 2.77 6.46 2.36-7.62-.05.01.02-.02 7.71 2.46-1.99-7.78 7.35-.46-5.79-4.74 3.05-1.7zm-16.8 15.84v.02zm4.28-11.68c2.96-2.95 6.79-4.69 8.26-3.2 1.46 1.47-.08 5.09-3.04 8.03-3 2.94-6.77 4.78-8.24 3.3-1.47-1.49.04-5.19 3.01-8.13z"/></svg>

<?xml version="1.0" encoding="UTF-8"?><!DOCTYPE svg PUBLIC "-//W3C//DTD SVG 1.1//EN" "http://www.w3.org/Graphics/SVG/1.1/DTD/svg11.dtd"><svg xmlns="http://www.w3.org/2000/svg" xmlns:xlink="http://www.w3.org/1999/xlink" version="1.1" id="mdi-language-ruby" width="24" height="24" viewBox="0 0 24 24"><path d="M18.8,2.07C21.32,2.5 22.04,4.23 22,6.04V6L20.86,20.93L6.08,21.94H6.09C4.86,21.89 2.13,21.77 2,17.95L3.37,15.45L6.14,21.91L8.5,14.29L8.45,14.3L8.47,14.28L16.18,16.74L14.19,8.96L21.54,8.5L15.75,3.76L18.8,2.06V2.07M2,17.91V17.93L2,17.91V17.91M6.28,6.23C9.24,3.28 13.07,1.54 14.54,3.03C16,4.5 14.46,8.12 11.5,11.06C8.5,14 4.73,15.84 3.26,14.36C1.79,12.87 3.3,9.17 6.27,6.23H6.28Z" /></svg>
